X:127
T:Come Back Paddy Reilly
B:Terry "Cuz" Teahan "Sliabh Luachra on Parade" 1980
Z:Patrick Cavanagh
M:3/4
L:1/8
R:Waltz
K:D
d>f | a4b>a | f2e2d2 | B2d2B2 | A4B>c | d4c>d | b2a2f2 | (e6 | e4)f>a | 
a4b>a | f2e2d2 | B2d2B2 | A4f>g | a4f2 | e2d2e2 | (d6 | d4)f>a | 
b4bb | b2a2f2 | b2a3f | a4a2 | a2f2e2 | d2c2d2 | (e6 | e4)f2 | 
a4b>a | f2e2d2 | B2d2B2 | A4d>e | f2a2f2 | e2d2e2 | (d6 | d4) :|| 

